X:1
T:Clear the Track
N:Book: Singing Together, BBC Broadcasts to Schools, Autumn Term, 1958
N:From 'The Shanty Book', Part 1.
M:2/4     %Meter
L:1/16     %
K:Bb
d3c |B2B2 A2A2 |G2G2 F2
w:Oh, the smart-est clip-per you can find 
D2 F2| D2 F2D2 |F2F2 F2
w:Ah ho Way-oh, are you most done. 
FF |G2G2 B2c2 |d2(cB) c2
w:Is the Mar-get Evans of~the Blue Cross_ line
d2 |B3G A2DD |G2G2 G2
w:So clear the track, let the Bull-gine run.
GA |B2cB A2BA |G2G2 F2
w:Tib-by Hey ri-ga jig in a jaun-ting car.
D2 |F2D2 F2D2 | F2F2 F2 
w:Ah ho Way-oh, are you most done.
F2 |G2G2 B2c2 |d2(cB) c2
w:With Li-za Lee all on my_ knee.
d2 |B3G A2DD |G2G2 G2 |]
w:So clear the track, let the Bull-gine run.